systematic/svg/Sony - PlayStation 3 (DLC).svg

<?xml version="1.0" encoding="UTF-8" standalone="no"?>
<svg
   xmlns:dc="http://purl.org/dc/elements/1.1/"
   xmlns:cc="http://creativecommons.org/ns#"
   xmlns:rdf="http://www.w3.org/1999/02/22-rdf-syntax-ns#"
   xmlns:svg="http://www.w3.org/2000/svg"
   xmlns="http://www.w3.org/2000/svg"
   viewBox="0 0 320 320"
   height="320"
   width="320"
   xml:space="preserve"
   version="1.1"
   id="svg2"><metadata
     id="metadata8"><rdf:RDF><cc:Work
         rdf:about=""><dc:format>image/svg+xml</dc:format><dc:type
           rdf:resource="http://purl.org/dc/dcmitype/StillImage" /></cc:Work></rdf:RDF></metadata><defs
     id="defs6"><clipPath
       id="clipPath16"
       clipPathUnits="userSpaceOnUse"><path
         id="path18"
         d="M 0,256 256,256 256,0 0,0 0,256 Z" /></clipPath><clipPath
       id="clipPath24"
       clipPathUnits="userSpaceOnUse"><path
         id="path26"
         d="M 4,252 252,252 252,4 4,4 4,252 Z" /></clipPath></defs><g
     transform="matrix(1.25,0,0,-1.25,0,320)"
     id="g10"><g
       id="g12"><g
         clip-path="url(#clipPath16)"
         id="g14"><g
           id="g20"><g
             id="g22" /><g
             id="g28"><g
               style="opacity:0.5"
               id="g30"
               clip-path="url(#clipPath24)"><g
                 id="g32"
                 transform="translate(4,8)"><path
                   id="path34"
                   style="fill:#ffffff;fill-opacity:1;fill-rule:nonzero;stroke:none"
                   d="m 0,0 0,240 c 0,2.209 1.791,4 4,4 l 240,0 c 2.209,0 4,-1.791 4,-4 L 248,0 c 0,-2.209 -1.791,-4 -4,-4 L 4,-4 C 1.791,-4 0,-2.209 0,0" /></g></g></g></g><g
           transform="translate(104,12)"
           id="g36"><path
             id="path38"
             style="fill:#808080;fill-opacity:1;fill-rule:nonzero;stroke:none"
             d="m 0,0 0,24 140,0 0,-20 c 0,-2.209 -1.791,-4 -4,-4 L 0,0 Z" /></g><g
           transform="translate(182,16)"
           id="g40"><path
             id="path42"
             style="fill:#b3b3b3;fill-opacity:1;fill-rule:nonzero;stroke:none"
             d="m 0,0 c -3.313,0 -6,2.687 -6,6 0,3.313 2.687,6 6,6 C 3.313,12 6,9.313 6,6 6,2.687 3.313,0 0,0" /></g><g
           transform="translate(234,16)"
           id="g44"><path
             id="path46"
             style="fill:#b3b3b3;fill-opacity:1;fill-rule:nonzero;stroke:none"
             d="m 0,0 c -3.313,0 -6,2.687 -6,6 0,3.313 2.687,6 6,6 C 3.313,12 6,9.313 6,6 6,2.687 3.313,0 0,0" /></g><path
           id="path48"
           style="fill:#999999;fill-opacity:1;fill-rule:nonzero;stroke:none"
           d="m 120,32 124,0 0,-2 -124,0 0,2 z" /><g
           transform="translate(128,32)"
           id="g50"><path
             id="path52"
             style="fill:#333333;fill-opacity:1;fill-rule:nonzero;stroke:none"
             d="m 0,0 0,0 116,0 0,208 c 0,2.209 -1.791,4 -4,4 l -224,0 c -2.209,0 -4,-1.791 -4,-4 l 0,-224 c 0,-2.209 1.791,-4 4,-4 l 96,0 C -16,-0.001 -0.001,0 0,0" /></g><path
           id="path54"
           style="fill:#404040;fill-opacity:1;fill-rule:nonzero;stroke:none"
           d="m 12,208 232,0 0,-148 -232,0 0,148 z" /><g
           transform="translate(128.0161,92)"
           id="g56"><path
             id="path58"
             style="fill:#0e6654;fill-opacity:1;fill-rule:nonzero;stroke:none"
             d="m 0,0 39.984,48 -24,0 0,48 c 0,4.418 -3.582,8 -8,8 l -16,0 c -4.419,0 -8,-3.582 -8,-8 l 0,-48 -24,0 L 0,0 Z" /></g><g
           transform="translate(92,76)"
           id="g60"><path
             id="path62"
             style="fill:#0e6654;fill-opacity:1;fill-rule:nonzero;stroke:none"
             d="m 0,0 72,0 c 2.209,0 4,1.791 4,4 0,2.209 -1.791,4 -4,4 L 0,8 C -2.209,8 -4,6.209 -4,4 -4,1.791 -2.209,0 0,0" /></g><g
           transform="translate(184,112)"
           id="g64"><path
             id="path66"
             style="fill:#0e6654;fill-opacity:1;fill-rule:nonzero;stroke:none"
             d="m 0,0 -12,0 0,12 -12,0 0,-12 -12,0 0,-12 12,0 0,-12 12,0 0,12 12,0 0,12 z" /></g></g></g></g></svg>

<?xml version="1.0" encoding="UTF-8" standalone="no"?>
<svg
   xmlns:dc="http://purl.org/dc/elements/1.1/"
   xmlns:cc="http://creativecommons.org/ns#"
   xmlns:rdf="http://www.w3.org/1999/02/22-rdf-syntax-ns#"
   xmlns:svg="http://www.w3.org/2000/svg"
   xmlns="http://www.w3.org/2000/svg"
   viewBox="0 0 330.66665 330.66665"
   height="330.66666"
   width="330.66666"
   xml:space="preserve"
   id="svg2"
   version="1.1"><metadata
     id="metadata8"><rdf:RDF><cc:Work
         rdf:about=""><dc:format>image/svg+xml</dc:format><dc:type
           rdf:resource="http://purl.org/dc/dcmitype/StillImage" /></cc:Work></rdf:RDF></metadata><defs
     id="defs6"><clipPath
       id="clipPath18"
       clipPathUnits="userSpaceOnUse"><path
         id="path16"
         d="M 0,256 H 256 V 0 H 0 Z" /></clipPath><clipPath
       id="clipPath26"
       clipPathUnits="userSpaceOnUse"><path
         id="path24"
         d="M 4,252 H 252 V 4 H 4 Z" /></clipPath></defs><g
     transform="matrix(1.3333333,0,0,-1.3333333,-5.3333332,335.99999)"
     id="g10"><g
       id="g12"><g
         clip-path="url(#clipPath18)"
         id="g14"><g
           id="g20"><g
             id="g22" /><g
             id="g34"><g
               style="opacity:0.5"
               id="g32"
               clip-path="url(#clipPath26)"><g
                 id="g30"
                 transform="translate(4,8)"><path
                   id="path28"
                   style="fill:#ffffff;fill-opacity:1;fill-rule:nonzero;stroke:none"
                   d="m 0,0 v 240 c 0,2.209 1.791,4 4,4 h 240 c 2.209,0 4,-1.791 4,-4 V 0 c 0,-2.209 -1.791,-4 -4,-4 H 4 C 1.791,-4 0,-2.209 0,0" /></g></g></g></g><g
           transform="translate(104,12)"
           id="g36"><path
             id="path38"
             style="fill:#808080;fill-opacity:1;fill-rule:nonzero;stroke:none"
             d="M 0,0 V 24 H 140 V 4 c 0,-2.209 -1.791,-4 -4,-4 z" /></g><g
           transform="translate(182,16)"
           id="g40"><path
             id="path42"
             style="fill:#b3b3b3;fill-opacity:1;fill-rule:nonzero;stroke:none"
             d="m 0,0 c -3.313,0 -6,2.687 -6,6 0,3.313 2.687,6 6,6 C 3.313,12 6,9.313 6,6 6,2.687 3.313,0 0,0" /></g><g
           transform="translate(234,16)"
           id="g44"><path
             id="path46"
             style="fill:#b3b3b3;fill-opacity:1;fill-rule:nonzero;stroke:none"
             d="m 0,0 c -3.313,0 -6,2.687 -6,6 0,3.313 2.687,6 6,6 C 3.313,12 6,9.313 6,6 6,2.687 3.313,0 0,0" /></g><path
           id="path48"
           style="fill:#999999;fill-opacity:1;fill-rule:nonzero;stroke:none"
           d="M 120,32 H 244 V 30 H 120 Z" /><g
           transform="translate(128,32)"
           id="g50"><path
             id="path52"
             style="fill:#333333;fill-opacity:1;fill-rule:nonzero;stroke:none"
             d="m 0,0 v 0 h 116 v 208 c 0,2.209 -1.791,4 -4,4 h -224 c -2.209,0 -4,-1.791 -4,-4 V -16 c 0,-2.209 1.791,-4 4,-4 h 96 C -16,-0.001 -0.001,0 0,0" /></g><path
           id="path54"
           style="fill:#404040;fill-opacity:1;fill-rule:nonzero;stroke:none"
           d="M 12,208 H 244 V 60 H 12 Z" /><g
           transform="translate(128.0161,92)"
           id="g56"><path
             id="path58"
             style="fill:#0e6654;fill-opacity:1;fill-rule:nonzero;stroke:none"
             d="m 0,0 39.984,48 h -24 v 48 c 0,4.418 -3.582,8 -8,8 h -16 c -4.419,0 -8,-3.582 -8,-8 V 48 h -24 z" /></g><g
           transform="translate(92,76)"
           id="g60"><path
             id="path62"
             style="fill:#0e6654;fill-opacity:1;fill-rule:nonzero;stroke:none"
             d="m 0,0 h 72 c 2.209,0 4,1.791 4,4 0,2.209 -1.791,4 -4,4 H 0 C -2.209,8 -4,6.209 -4,4 -4,1.791 -2.209,0 0,0" /></g><g
           transform="translate(184,112)"
           id="g64"><path
             id="path66"
             style="fill:#0e6654;fill-opacity:1;fill-rule:nonzero;stroke:none"
             d="M 0,0 H -12 V 12 H -24 V 0 h -12 v -12 h 12 v -12 h 12 v 12 H 0 Z" /></g></g></g></g></svg>
